X:17
T:Mairi's Wedding
S:Alan Ng, who learned it from Madison, Wisconsin sessions
N:Transcribed by Alan Ng. Also played down a fifth.
Z:id:ng-other-17 Transcribed by Alan Ng alan@alan-ng.nospam (net) Aug. 28, 2001
R:march
M:C
K:AMix
E:15
A3B A2B2|d2e2 f4|e2d2 B4|f2e2 fa3|A3B A2B2|d2e2 f4|e2d2 B2G2|A4 A4||\
a3a a2b2|a2g2 f4|e2d2 B4|f2e2 fa3|a3a a2b2|a2g2 f4|e2d2 B2G2|A4 A4|]**
